modules/themify-icons/icons/back-right.svg

<?xml version="1.0" encoding="utf-8"?>
<!-- Generated by IcoMoon.io -->
<!DOCTYPE svg PUBLIC "-//W3C//DTD SVG 1.1//EN" "http://www.w3.org/Graphics/SVG/1.1/DTD/svg11.dtd">
<svg version="1.1" xmlns="http://www.w3.org/2000/svg" xmlns:xlink="http://www.w3.org/1999/xlink" width="17" height="17" viewBox="0 0 17 17">
<g>
</g>
	<path d="M14.583 15v1h-7.083c-3.032 0-5.5-2.467-5.5-5.5s2.468-5.5 5.5-5.5h2.912l-2.646-2.646 0.707-0.707 3.853 3.853-3.853 3.854-0.707-0.708 2.646-2.646h-2.912c-2.481 0-4.5 2.019-4.5 4.5s2.019 4.5 4.5 4.5h7.083z" fill="#000000" />
</svg>

<svg xmlns="http://www.w3.org/2000/svg" width="17" height="17"><path d="M14.583 15v1H7.5C4.468 16 2 13.533 2 10.5S4.468 5 7.5 5h2.912L7.766 2.354l.707-.707L12.326 5.5 8.473 9.354l-.707-.708L10.412 6H7.5C5.019 6 3 8.019 3 10.5S5.019 15 7.5 15h7.083z"/></svg>
